src/ui/assets/mnemonic-icon.svg

<?xml version="1.0" encoding="UTF-8"?><svg id="Layer_1" xmlns="http://www.w3.org/2000/svg" width="128" height="128" xmlns:xlink="http://www.w3.org/1999/xlink" viewBox="0 0 128 128"><defs><style>.cls-1{fill:url(#linear-gradient);}.cls-2{mask:url(#mask);}.cls-3,.cls-4{fill:#fff;}.cls-4{opacity:.4;}.cls-4,.cls-5,.cls-6{isolation:isolate;}.cls-5{fill:#ffd523;opacity:.1;}</style><mask id="mask" x="30" y="23" width="67" height="69.3079" maskUnits="userSpaceOnUse"><g id="mask0"><path class="cls-3" d="M37.7885,30h46.7309c5.1923,0,7.7885,2.5962,7.7885,7.7885v46.7309c0,5.1923-2.5962,7.7885-7.7885,7.7885H37.7885c-5.1923,0-7.7885-2.5962-7.7885-7.7885V37.7885c0-5.1923,2.5962-7.7885,7.7885-7.7885Z"/></g></mask><linearGradient id="linear-gradient" x1="45.2754" y1="61.564" x2="76.3078" y2="61.564" gradientTransform="matrix(1, 0, 0, 1, 0, 0)" gradientUnits="userSpaceOnUse"><stop offset="0" stop-color="#ffce46"/><stop offset="1" stop-color="#ffdc81"/></linearGradient></defs><rect class="cls-4" x="37.0771" y="36.1924" width="61.9231" height="62.8077" rx="6" ry="6"/><path class="cls-3" d="M37.7885,30h46.7309c5.1923,0,7.7885,2.5962,7.7885,7.7885v46.7309c0,5.1923-2.5962,7.7885-7.7885,7.7885H37.7885c-5.1923,0-7.7885-2.5962-7.7885-7.7885V37.7885c0-5.1923,2.5962-7.7885,7.7885-7.7885Z"/><g class="cls-2"><g class="cls-6"><circle class="cls-5" cx="77.5" cy="42.5" r="19.5"/></g></g><path class="cls-1" d="M72.9993,78.8598c.9112,0,1.6916-.3224,2.3381-.9689s.9704-1.3583,.9704-2.134c0-.7446-.3427-1.9393-1.0281-3.5827l-8.7386-21.585c-.3274-.8678-.6659-1.7314-1.0157-2.5905-.2616-.6375-.5906-1.2454-.9813-1.8131-.3968-.5716-.9196-1.0443-1.5281-1.3817-.6309-.3583-1.4175-.5358-2.3615-.5358-.9284,0-1.7072,.1791-2.3396,.5358-.6309,.3583-1.1403,.8256-1.5281,1.4035-.4423,.6855-.8094,1.4166-1.0951,2.1808l-.8785,2.2462-8.5565,21.722c-.3504,.8677-.6012,1.5453-.7539,2.0313-.1471,.4572-.2238,.9341-.2274,1.4144,0,.7913,.3271,1.4985,.9813,2.1231,.6543,.6231,1.4066,.9346,2.2587,.9346,1.0032,0,1.7259-.2928,2.1668-.8785,.4423-.5857,.9735-1.7135,1.5982-3.388l1.5966-4.2899h13.5987l1.5982,4.198c.2134,.5172,.4673,1.1153,.7632,1.7913,.2976,.6776,.5764,1.1792,.8334,1.5063,.2583,.3267,.5861,.5917,.9596,.7758,.38,.19,.8364,.285,1.3692,.285Zm-7.3477-13.6454h-9.9957l4.9503-13.8043,5.0439,13.8043h.0015Z"/></svg>

<svg width="128" height="128" viewBox="0 0 128 128" fill="none" xmlns="http://www.w3.org/2000/svg">
<rect opacity="0.4" x="37.0771" y="36.1924" width="61.9231" height="62.8077" rx="6" fill="white"/>
<g filter="url(#filter0_d)">
<path d="M37.7885 30H84.5194C89.7117 30 92.3079 32.5962 92.3079 37.7885V84.5194C92.3079 89.7117 89.7117 92.3079 84.5194 92.3079H37.7885C32.5962 92.3079 30 89.7117 30 84.5194V37.7885C30 32.5962 32.5962 30 37.7885 30Z" fill="white"/>
</g>
<mask id="mask0" mask-type="alpha" maskUnits="userSpaceOnUse" x="30" y="30" width="63" height="63">
<path d="M37.7885 30H84.5194C89.7117 30 92.3079 32.5962 92.3079 37.7885V84.5194C92.3079 89.7117 89.7117 92.3079 84.5194 92.3079H37.7885C32.5962 92.3079 30 89.7117 30 84.5194V37.7885C30 32.5962 32.5962 30 37.7885 30Z" fill="white"/>
</mask>
<g mask="url(#mask0)">
<circle opacity="0.1" cx="77.5" cy="42.5" r="19.5" fill="#B4C1FF"/>
</g>
<path opacity="0.6" d="M72.9993 78.8598C73.9105 78.8598 74.6909 78.5374 75.3374 77.8909C75.9838 77.2445 76.3078 76.5326 76.3078 75.7569C76.3078 75.0123 75.9651 73.8176 75.2797 72.1742L66.5411 50.5892C66.2137 49.7214 65.8752 48.8578 65.5254 47.9987C65.2638 47.3612 64.9348 46.7533 64.5441 46.1856C64.1473 45.614 63.6245 45.1413 63.016 44.8039C62.3851 44.4456 61.5985 44.2681 60.6545 44.2681C59.7261 44.2681 58.9473 44.4472 58.3149 44.8039C57.684 45.1622 57.1746 45.6295 56.7868 46.2074C56.3445 46.8929 55.9774 47.624 55.6917 48.3882L54.8132 50.6344L46.2567 72.3564C45.9063 73.2241 45.6555 73.9017 45.5028 74.3877C45.3557 74.8449 45.279 75.3218 45.2754 75.8021C45.2754 76.5934 45.6025 77.3006 46.2567 77.9252C46.911 78.5483 47.6633 78.8598 48.5154 78.8598C49.5186 78.8598 50.2413 78.567 50.6822 77.9813C51.1245 77.3956 51.6557 76.2678 52.2804 74.5933L53.877 70.3034H67.4757L69.0739 74.5014C69.2873 75.0186 69.5412 75.6167 69.8371 76.2927C70.1347 76.9703 70.4135 77.4719 70.6705 77.799C70.9288 78.1257 71.2566 78.3907 71.6301 78.5748C72.0101 78.7648 72.4665 78.8598 72.9993 78.8598ZM65.6516 65.2144H55.6559L60.6062 51.4101L65.6501 65.2144H65.6516Z" fill="#8298FF"/>
<defs>
<filter id="filter0_d" x="14" y="26" width="94.3079" height="94.3079" filterUnits="userSpaceOnUse" color-interpolation-filters="sRGB">
<feFlood flood-opacity="0" result="BackgroundImageFix"/>
<feColorMatrix in="SourceAlpha" type="matrix" values="0 0 0 0 0 0 0 0 0 0 0 0 0 0 0 0 0 0 127 0"/>
<feOffset dy="12"/>
<feGaussianBlur stdDeviation="8"/>
<feColorMatrix type="matrix" values="0 0 0 0 0.0840278 0 0 0 0 0.109304 0 0 0 0 0.366667 0 0 0 0.08 0"/>
<feBlend mode="normal" in2="BackgroundImageFix" result="effect1_dropShadow"/>
<feBlend mode="normal" in="SourceGraphic" in2="effect1_dropShadow" result="shape"/>
</filter>
</defs>
</svg>
